; generated by Slic3r 1.2.9 on 2017-03-29 at 10:22:45

; external perimeters extrusion width = 0.40mm
; perimeters extrusion width = 0.67mm
; infill extrusion width = 0.67mm
; solid infill extrusion width = 0.67mm
; top infill extrusion width = 0.67mm
; support material extrusion width = 0.40mm

M107
M104 S205 ; set temperature
;M140 S0 ;bed off
G1 Z5 F5000 ; lift nozzle
;G28 ; home all axes
G28 X0  ; home X axis
G28 Y0  ; home Y axis
G28 Z0  ; home Z axis

M109 S205 ; wait for temperature to be reached
G21 ; set units to millimeters
G90 ; use absolute coordinates
M82 ; use absolute distances for extrusion
G92 E0
G1 E-0.90000 F1200.00000
G92 E0
G1 Z0.800 F9600.000
G1 X50.843 Y65.411 F9600.000
G1 E0.90000 F1200.00000
G1 X103.034 Y24.843 E8.75074 F1500.000
G1 X103.478 Y24.529 E8.81532
G1 X103.779 Y24.345 E8.85724
G1 X104.267 Y24.104 E8.92194
G1 X104.658 Y23.947 E8.97195
G1 X105.339 Y23.756 E9.05596
G1 X105.910 Y23.661 E9.12473
G1 X106.542 Y23.622 E9.19985
G1 X148.423 Y23.622 E14.17393
G1 X148.949 Y23.654 E14.23647 F1500.000
G1 X149.386 Y23.715 E14.28892
G1 X149.816 Y23.810 E14.34123
G1 X150.205 Y23.927 E14.38949
G1 X150.592 Y24.072 E14.43857
G1 X150.965 Y24.250 E14.48766
G1 X151.233 Y24.397 E14.52391
G1 X151.660 Y24.671 E14.58416
G1 X152.104 Y25.017 E14.65097
G1 X152.904 Y25.710 E14.77675
G1 X155.211 Y27.755 E15.14279
G1 X156.679 Y29.085 E15.37806
G1 X157.272 Y29.687 E15.47849
G1 X157.615 Y30.097 E15.54200
G1 X158.079 Y30.770 E15.63911
G1 X158.414 Y31.379 E15.72161
G1 X158.720 Y32.053 E15.80947
G1 X159.017 Y32.948 E15.92153
G1 X159.205 Y33.824 E16.02797
G1 X159.273 Y34.316 E16.08691
G1 X159.324 Y35.145 E16.18554
G1 X159.326 Y46.640 E17.55074
G1 X154.883 Y179.442 E33.33181
G1 X154.791 Y180.147 E33.41625
G1 X153.376 Y186.326 E34.16909
G1 X152.145 Y188.340 E34.44951
G1 X71.560 Y256.036 E46.94903
G1 X70.517 Y256.653 E47.09292
G1 X66.118 Y258.365 E47.65355
G1 X64.771 Y258.618 E47.81628
G1 X39.209 Y258.618 E50.85225
G1 X37.500 Y258.202 E51.06105
G1 X34.196 Y256.490 E51.50304
G1 X32.938 Y255.428 E51.69850
G1 X23.190 Y242.500 E53.62145
G1 X22.745 Y241.867 E53.71339
G1 X22.479 Y241.431 E53.77408
G1 X22.127 Y240.786 E53.86133
G1 X21.752 Y239.893 E53.97630
G1 X21.610 Y239.448 E54.03181
G1 X21.482 Y238.916 E54.09678
G1 X21.369 Y238.068 E54.19839
G1 X20.676 Y226.157 E55.61541
G1 X20.673 Y215.277 E56.90757
G1 X23.376 Y88.498 E71.96790
G1 X23.806 Y86.841 E72.17124
G1 X24.810 Y85.645 E72.35669
G1 X50.795 Y65.447 E76.26541
G1 E75.36541 F1200.00000
G92 E0
G1 X108.613 Y34.223 F9600.000
G1 E0.90000 F1200.00000
G1 X109.331 Y34.635 E0.99824 F1500.000
G1 X109.696 Y34.421 E1.04846
G1 X111.699 Y34.518 E1.28666
G1 X112.902 Y35.388 E1.46298
G1 X114.081 Y38.449 E1.85252
G1 X114.164 Y38.964 E1.91450
G1 X114.130 Y39.654 E1.99655
G1 X113.998 Y40.159 E2.05853
G1 X113.841 Y40.473 E2.10019
G1 X113.912 Y40.926 E2.15467
G1 X114.080 Y41.096 E2.18307
G1 X114.331 Y42.682 E2.37375
G1 X112.328 Y46.679 E2.90475
G1 X110.363 Y47.332 E3.15067
G1 X109.291 Y46.795 E3.29304
G1 X108.613 Y47.213 E3.38767
G1 X108.613 Y49.996 E3.71819
G1 X109.030 Y50.414 E3.78830
G1 X109.419 Y50.416 E3.83450
G1 X109.726 Y50.442 E3.87107
G1 X110.212 Y50.553 E3.93027
G1 X110.683 Y50.750 E3.99094
G1 X110.921 Y50.885 E4.02345
G1 X111.168 Y51.063 E4.05963
G1 X111.522 Y51.394 E4.11718
G1 X111.695 Y51.600 E4.14910
G1 X111.859 Y51.840 E4.18357
G1 X112.009 Y52.111 E4.22035
G1 X112.143 Y52.433 E4.26182
G1 X112.285 Y52.960 E4.32666
G1 X112.673 Y53.265 E4.38531
G1 X142.251 Y53.265 E7.89812
G1 X142.637 Y52.966 E7.95617
G1 X142.767 Y52.485 E8.01529
G1 X142.960 Y52.029 E8.07418
G1 X143.226 Y51.609 E8.13318
G1 X143.558 Y51.237 E8.19234
G1 X143.885 Y50.968 E8.24264
G1 X144.347 Y50.698 E8.30623
G1 X144.718 Y50.552 E8.35360
G1 X145.293 Y50.419 E8.42369
G1 X145.614 Y50.026 E8.48402
G1 X145.614 Y47.749 E8.75438
G1 X144.953 Y47.328 E8.84748
G1 X144.162 Y47.697 E8.95109
G1 X141.855 Y47.151 E9.23268
G1 X140.777 Y45.788 E9.43912
G1 X140.777 Y41.223 E9.98130
G1 X140.810 Y40.934 E10.01582
G1 X140.899 Y40.561 E10.06143
G1 X140.998 Y40.287 E10.09595
G1 X141.093 Y40.098 E10.12114
G1 X141.113 Y39.815 E10.15488
G1 X140.525 Y38.044 E10.37652
G1 X142.025 Y35.050 E10.77418
G1 X143.024 Y34.332 E10.92031
G1 X144.657 Y34.100 E11.11622
G1 X145.009 Y34.225 E11.16057
G1 X145.614 Y33.798 E11.24848
G1 X145.614 Y31.790 E11.48707
G1 X145.289 Y31.394 E11.54790
G1 X144.892 Y31.313 E11.59600
G1 X144.445 Y31.164 E11.65190
G1 X144.117 Y30.999 E11.69555
G1 X143.704 Y30.711 E11.75533
G1 X143.391 Y30.408 E11.80704
G1 X143.179 Y30.144 E11.84722
G1 X143.031 Y29.917 E11.87945
G1 X142.838 Y29.522 E11.93167
G1 X142.761 Y29.312 E11.95823
G1 X142.670 Y28.967 E12.00060
G1 X142.619 Y28.539 E12.05181
G1 X142.614 Y26.316 E12.31579
G1 X144.058 Y24.856 E12.55974
G1 X145.768 Y24.836 E12.76283
G1 X148.551 Y24.840 E13.09335
G1 X149.195 Y24.912 E13.17030
G1 X149.670 Y25.031 E13.22849
G1 X149.971 Y25.130 E13.26609
G1 X150.321 Y25.282 E13.31139
G1 X150.875 Y25.600 E13.38724
G1 X151.278 Y25.909 E13.44755
G1 X154.420 Y28.677 E13.94492
G1 X155.894 Y30.012 E14.18109
G1 X156.462 Y30.596 E14.27778
G1 X156.915 Y31.205 E14.36803
G1 X157.093 Y31.482 E14.40713
G1 X157.500 Y32.272 E14.51256
G1 X157.593 Y32.507 E14.54262
G1 X157.820 Y33.169 E14.62577
G1 X158.008 Y34.029 E14.73030
G1 X158.064 Y34.427 E14.77804
G1 X158.112 Y35.222 E14.87264
G1 X158.112 Y46.602 E16.22422
G1 X158.064 Y47.403 E16.31947
G1 X158.020 Y47.726 E16.35817
G1 X157.817 Y48.658 E16.47143
G1 X157.484 Y49.633 E16.59387
G1 X157.442 Y49.974 E16.63467
G1 X157.442 Y57.958 E17.58283
G1 X157.390 Y58.625 E17.66230
G1 X157.283 Y59.171 E17.72836
G1 X157.103 Y59.762 E17.80180
G1 X156.968 Y60.116 E17.84677
G1 X156.702 Y60.691 E17.92199
G1 X156.318 Y61.367 E18.01436
G1 X155.845 Y62.065 E18.11454
G1 X155.397 Y62.636 E18.20072
G1 X154.729 Y63.373 E18.31877
G1 X153.948 Y64.100 E18.44548
G1 X153.466 Y64.476 E18.51814
G1 X152.871 Y64.890 E18.60428
G1 X152.070 Y65.336 E18.71310
G1 X150.491 Y66.049 E18.91885
G1 X149.547 Y66.665 E19.05277
G1 X148.719 Y67.409 E19.18495
G1 X148.002 Y68.288 E19.31974
G1 X147.400 Y69.308 E19.46036
G1 X147.337 Y69.448 E19.47857
G1 X146.967 Y70.419 E19.60197
G1 X146.713 Y71.528 E19.73711
G1 X146.613 Y72.810 E19.88988
G1 X146.613 Y74.466 E20.08653
G1 X145.149 Y75.930 E20.33246
G1 X142.640 Y75.930 E20.63043
G1 X142.295 Y76.143 E20.67858
G1 X141.782 Y77.167 E20.81449
G1 X139.817 Y77.819 E21.06042
G1 X139.504 Y77.662 E21.10209
G1 X139.237 Y77.637 E21.13389
G1 X138.518 Y77.841 E21.22269
G1 X113.218 Y77.841 E24.22742
G1 X112.083 Y77.208 E24.38182
G1 X111.406 Y76.111 E24.53486
G1 X111.081 Y75.930 E24.57898
G1 X109.778 Y75.930 E24.73373
G1 X108.314 Y74.466 E24.97966
G1 X108.313 Y72.784 E25.17951
G1 X108.222 Y71.576 E25.32332
G1 X108.067 Y70.862 E25.41011
G1 X107.946 Y70.372 E25.47001
G1 X107.549 Y69.353 E25.59995
G1 X106.923 Y68.286 E25.74678
G1 X106.218 Y67.421 E25.87945
G1 X105.378 Y66.664 E26.01369
G1 X104.422 Y66.039 E26.14936
G1 X102.970 Y65.388 E26.33836
G1 X102.455 Y65.125 E26.40705
G1 X102.102 Y64.919 E26.45548
G1 X101.194 Y64.275 E26.58781
G1 X100.807 Y63.950 E26.64780
G1 X100.485 Y63.647 E26.70029
G1 X100.025 Y63.195 E26.77695
G1 X99.455 Y62.546 E26.87945
G1 X98.797 Y61.656 E27.01088
G1 X98.422 Y61.049 E27.09562
G1 X98.090 Y60.412 E27.18102
G1 X97.791 Y59.669 E27.27611
G1 X97.713 Y59.429 E27.30605
G1 X97.562 Y58.786 E27.38451
G1 X97.486 Y57.959 E27.48313
G1 X97.486 Y49.999 E28.42854
G1 X97.472 Y49.787 E28.45379
G1 X97.433 Y49.591 E28.47744
G1 X97.136 Y48.744 E28.58409
G1 X97.019 Y48.287 E28.64012
G1 X96.876 Y47.520 E28.73275
G1 X96.815 Y46.604 E28.84176
G1 X96.814 Y35.285 E30.18615
G1 X96.824 Y34.954 E30.22544
G1 X96.895 Y34.157 E30.32045
G1 X97.018 Y33.513 E30.39834
G1 X97.197 Y32.883 E30.47610
G1 X97.474 Y32.171 E30.56682
G1 X97.782 Y31.568 E30.64724
G1 X98.014 Y31.205 E30.69844
G1 X98.350 Y30.734 E30.76714
G1 X99.035 Y30.011 E30.88548
G1 X100.919 Y28.308 E31.18704
G1 X102.806 Y26.639 E31.48618
G1 X103.880 Y25.726 E31.65357
G1 X104.311 Y25.439 E31.71511
G1 X104.836 Y25.179 E31.78471
G1 X105.254 Y25.028 E31.83750
G1 X105.912 Y24.880 E31.91754
G1 X106.497 Y24.836 E31.98721
G1 X110.869 Y24.856 E32.50651
G1 X112.313 Y26.316 E32.75046
G1 X112.313 Y28.449 E33.00377
G1 X112.249 Y29.006 E33.07031
G1 X112.103 Y29.493 E33.13072
G1 X111.886 Y29.935 E33.18916
G1 X111.599 Y30.338 E33.24789
G1 X111.383 Y30.568 E33.28550
G1 X111.116 Y30.793 E33.32692
G1 X110.845 Y30.978 E33.36583
G1 X110.637 Y31.090 E33.39392
G1 X110.154 Y31.280 E33.45559
G1 X109.689 Y31.378 E33.51201
G1 X109.031 Y31.401 E33.59015
G1 X108.613 Y31.820 E33.66042
G1 X108.613 Y34.163 E33.93871
G1 X107.899 Y35.467 F9600.000
G1 X108.616 Y35.879 E34.03694 F1500.000
G1 X109.873 Y35.145 E34.20978
G1 X111.453 Y35.222 E34.39761
G1 X112.312 Y35.843 E34.52355
G1 X113.388 Y38.636 E34.87904
G1 X113.447 Y39.004 E34.92332
G1 X113.421 Y39.545 E34.98765
G1 X113.326 Y39.906 E35.03193
G1 X112.973 Y40.610 E35.12548
G1 X113.045 Y41.063 E35.17996
G1 X113.411 Y41.434 E35.24186
G1 X113.590 Y42.567 E35.37806
G1 X111.822 Y46.094 E35.84669
G1 X110.418 Y46.561 E36.02235
G1 X108.577 Y45.638 E36.26697
G1 X107.899 Y46.056 E36.36160
G1 X107.899 Y50.711 E36.91439
G1 X108.317 Y51.129 E36.98465
G1 X109.392 Y51.130 E37.11225
G1 X109.773 Y51.175 E37.15783
G1 X110.001 Y51.236 E37.18593
G1 X110.253 Y51.333 E37.21796
G1 X110.536 Y51.487 E37.25618
G1 X110.721 Y51.620 E37.28320
G1 X110.902 Y51.777 E37.31173
G1 X111.074 Y51.966 E37.34210
G1 X111.320 Y52.333 E37.39460
G1 X111.470 Y52.674 E37.43876
G1 X111.531 Y52.883 E37.46461
G1 X111.580 Y53.139 E37.49557
G1 X111.617 Y53.600 E37.55055
G1 X112.028 Y53.979 E37.61693
G1 X142.904 Y53.979 E41.28396
G1 X143.317 Y53.589 E41.35148
G1 X143.356 Y53.080 E41.41206
G1 X143.418 Y52.798 E41.44637
G1 X143.493 Y52.579 E41.47393
G1 X143.591 Y52.364 E41.50189
G1 X143.750 Y52.102 E41.53832
G1 X144.046 Y51.759 E41.59213
G1 X144.225 Y51.604 E41.62021
G1 X144.491 Y51.427 E41.65817
G1 X144.931 Y51.234 E41.71524
G1 X145.336 Y51.146 E41.76454
G1 X145.910 Y51.129 E41.83268
G1 X146.328 Y50.711 E41.90294
G1 X146.328 Y46.627 E42.38791
G1 X145.667 Y46.206 E42.48101
G1 X144.085 Y46.945 E42.68836
G1 X142.261 Y46.514 E42.91097
G1 X141.491 Y45.540 E43.05842
G1 X141.491 Y41.265 E43.56618
G1 X141.515 Y41.058 E43.59084
G1 X141.584 Y40.766 E43.62658
G1 X141.655 Y40.570 E43.65124
G1 X141.864 Y40.153 E43.70663
G1 X141.884 Y39.870 E43.74037
G1 X141.296 Y38.099 E43.96201
G1 X142.585 Y35.527 E44.30366
G1 X143.298 Y35.014 E44.40804
G1 X144.584 Y34.832 E44.56220
G1 X145.723 Y35.237 E44.70587
G1 X146.328 Y34.811 E44.79379
G1 X146.328 Y31.105 E45.23387
G1 X145.909 Y30.686 E45.30426
G1 X145.498 Y30.684 E45.35299
G1 X145.138 Y30.637 E45.39611
G1 X144.861 Y30.559 E45.43031
G1 X144.475 Y30.381 E45.48084
G1 X144.269 Y30.244 E45.51017
G1 X144.053 Y30.066 E45.54347
G1 X143.862 Y29.861 E45.57669
G1 X143.729 Y29.682 E45.60313
G1 X143.579 Y29.431 E45.63797
G1 X143.468 Y29.173 E45.67130
G1 X143.347 Y28.684 E45.73112
G1 X143.328 Y28.424 E45.76207
G1 X143.328 Y26.610 E45.97751
G1 X144.360 Y25.567 E46.15176
G1 X148.522 Y25.553 E46.64608
G1 X148.920 Y25.593 E46.69355
G1 X149.220 Y25.646 E46.72975
G1 X149.718 Y25.798 E46.79165
G1 X149.995 Y25.918 E46.82749
G1 X150.360 Y26.118 E46.87691
G1 X150.819 Y26.456 E46.94458
G1 X153.942 Y29.208 E47.43895
G1 X155.405 Y30.534 E47.67348
G1 X155.930 Y31.074 E47.76291
G1 X156.326 Y31.609 E47.84195
G1 X156.529 Y31.935 E47.88758
G1 X156.850 Y32.569 E47.97198
G1 X157.103 Y33.264 E48.05983
G1 X157.202 Y33.648 E48.10690
G1 X157.327 Y34.270 E48.18227
G1 X157.398 Y35.245 E48.29833
G1 X157.398 Y46.578 E49.64429
G1 X157.353 Y47.341 E49.73518
G1 X157.319 Y47.588 E49.76471
G1 X157.135 Y48.447 E49.86904
G1 X156.794 Y49.445 E49.99436
G1 X156.746 Y49.697 E50.02479
G1 X156.728 Y49.950 E50.05486
G1 X156.727 Y57.944 E51.00427
G1 X156.685 Y58.512 E51.07197
G1 X156.586 Y59.015 E51.13279
G1 X156.427 Y59.533 E51.19724
G1 X156.316 Y59.825 E51.23437
G1 X156.061 Y60.375 E51.30634
G1 X155.706 Y60.998 E51.39140
G1 X155.274 Y61.635 E51.48286
G1 X154.841 Y62.188 E51.56624
G1 X154.229 Y62.864 E51.67460
G1 X153.496 Y63.547 E51.79360
G1 X153.048 Y63.897 E51.86109
G1 X152.479 Y64.292 E51.94334
G1 X151.764 Y64.690 E52.04056
G1 X150.155 Y65.416 E52.25022
G1 X149.124 Y66.085 E52.39615
G1 X148.198 Y66.918 E52.54407
G1 X147.414 Y67.879 E52.69146
G1 X146.741 Y69.026 E52.84934
G1 X146.283 Y70.206 E52.99967
G1 X145.997 Y71.474 E53.15399
G1 X145.899 Y72.784 E53.30999
G1 X145.899 Y74.170 E53.47470
G1 X144.853 Y75.216 E53.65037
G1 X142.199 Y75.216 E53.96557
G1 X141.854 Y75.429 E54.01371
G1 X141.276 Y76.582 E54.16686
G1 X139.873 Y77.048 E54.34253
G1 X139.473 Y76.848 E54.39563
G1 X139.102 Y76.865 E54.43975
G1 X138.896 Y76.991 E54.46844
G1 X138.418 Y77.127 E54.52746
G1 X135.771 Y77.127 E54.84184
G1 X135.721 Y77.099 E54.84872
G1 X135.438 Y77.066 E54.88246
G1 X135.223 Y77.127 E54.90906
G1 X132.576 Y77.127 E55.22345
G1 X132.525 Y77.099 E55.23033
G1 X132.243 Y77.066 E55.26407
G1 X132.028 Y77.127 E55.29067
G1 X129.380 Y77.127 E55.60505
G1 X129.330 Y77.099 E55.61193
G1 X129.048 Y77.066 E55.64568
G1 X128.832 Y77.127 E55.67228
G1 X126.185 Y77.127 E55.98666
G1 X126.135 Y77.099 E55.99354
G1 X125.852 Y77.066 E56.02728
G1 X125.637 Y77.127 E56.05388
G1 X122.990 Y77.127 E56.36827
G1 X122.939 Y77.099 E56.37515
G1 X122.657 Y77.066 E56.40889
G1 X122.442 Y77.127 E56.43549
G1 X119.794 Y77.127 E56.74987
G1 X119.744 Y77.099 E56.75675
G1 X119.462 Y77.066 E56.79050
G1 X119.246 Y77.127 E56.81710
G1 X116.599 Y77.127 E57.13148
G1 X116.548 Y77.099 E57.13836
G1 X116.266 Y77.066 E57.17210
G1 X116.051 Y77.127 E57.19870
G1 X113.404 Y77.127 E57.51309
G1 X112.593 Y76.675 E57.62338
G1 X111.804 Y75.397 E57.80168
G1 X111.480 Y75.216 E57.84579
G1 X110.074 Y75.216 E58.01273
G1 X109.028 Y74.170 E58.18839
G1 X109.028 Y72.784 E58.35311
G1 X108.930 Y71.471 E58.50942
G1 X108.645 Y70.206 E58.66343
G1 X108.188 Y69.031 E58.81318
G1 X107.513 Y67.879 E58.97175
G1 X106.739 Y66.929 E59.11724
G1 X105.827 Y66.105 E59.26323
G1 X104.773 Y65.414 E59.41292
G1 X103.273 Y64.741 E59.60823
G1 X102.713 Y64.453 E59.68302
G1 X102.425 Y64.277 E59.72300
G1 X101.699 Y63.763 E59.82876
G1 X101.275 Y63.410 E59.89427
G1 X100.599 Y62.762 E60.00552
G1 X99.957 Y62.031 E60.12099
G1 X99.430 Y61.316 E60.22655
G1 X99.249 Y61.036 E60.26608
G1 X99.046 Y60.703 E60.31239
G1 X98.689 Y60.006 E60.40539
G1 X98.461 Y59.419 E60.48023
G1 X98.380 Y59.158 E60.51264
G1 X98.264 Y58.651 E60.57446
G1 X98.203 Y58.017 E60.65006
G1 X98.200 Y49.974 E61.60529
G1 X98.181 Y49.693 E61.63876
G1 X98.123 Y49.404 E61.67370
G1 X97.849 Y48.633 E61.77097
G1 X97.717 Y48.138 E61.83179
G1 X97.584 Y47.432 E61.91713
G1 X97.529 Y46.579 E62.01862
G1 X97.536 Y34.997 E63.39412
G1 X97.599 Y34.277 E63.47994
G1 X97.716 Y33.668 E63.55367
G1 X97.861 Y33.154 E63.61708
G1 X98.128 Y32.458 E63.70558
G1 X98.448 Y31.845 E63.78774
G1 X98.914 Y31.172 E63.88495
G1 X99.523 Y30.532 E63.98983
G1 X101.404 Y28.833 E64.29086
G1 X104.088 Y26.473 E64.71540
G1 X104.335 Y26.279 E64.75270
G1 X104.779 Y25.997 E64.81511
G1 X105.123 Y25.833 E64.86039
G1 X105.449 Y25.716 E64.90154
G1 X105.857 Y25.614 E64.95152
G1 X106.351 Y25.560 E65.01053
G1 X109.157 Y25.551 E65.34377
G1 X110.567 Y25.567 E65.51129
G1 X111.599 Y26.610 E65.68554
G1 X111.599 Y28.431 E65.90177
G1 X111.575 Y28.720 E65.93624
G1 X111.487 Y29.094 E65.98183
G1 X111.275 Y29.565 E66.04324
G1 X111.056 Y29.873 E66.08809
G1 X110.792 Y30.140 E66.13266
G1 X110.483 Y30.363 E66.17796
G1 X110.139 Y30.532 E66.22344
G1 X109.706 Y30.654 E66.27693
G1 X109.349 Y30.687 E66.31948
G1 X108.317 Y30.687 E66.44199
G1 X107.899 Y31.106 E66.51225
G1 X107.899 Y35.407 E67.02316
G1 E66.12316 F1200.00000
G92 E0
G1 X146.124 Y36.705 F9600.000
G1 E0.90000 F1200.00000
G1 X146.696 Y36.620 E0.96862 F1500.000
G1 X147.042 Y36.218 E1.03165
G1 X147.042 Y30.390 E1.72379
G1 X146.624 Y29.972 E1.79406
G1 X145.592 Y29.973 E1.91660
G1 X145.248 Y29.929 E1.95775
G1 X145.014 Y29.853 E1.98699
G1 X144.779 Y29.729 E2.01857
G1 X144.611 Y29.607 E2.04327
G1 X144.411 Y29.404 E2.07709
G1 X144.259 Y29.186 E2.10869
G1 X144.156 Y28.972 E2.13691
G1 X144.057 Y28.597 E2.18297
G1 X144.042 Y28.406 E2.20573
